brandFactory_export/3.Masa/Dolar_Dinero_Moneda_3Masa.svg

<?xml version="1.0" encoding="UTF-8"?>
<svg width="24px" height="24px" viewBox="0 0 24 24" version="1.1" xmlns="http://www.w3.org/2000/svg" xmlns:xlink="http://www.w3.org/1999/xlink">
    <title>3.Masa/Dolar_Dinero_Moneda_3Masa</title>
    <g id="Symbols" stroke="none" stroke-width="1" fill="none" fill-rule="evenodd">
        <g id="3.Masa/Dolar_Dinero_Moneda_3Masa" fill="#5CB615" fill-rule="nonzero">
            <path d="M14.9445378,17.6773109 C14.594958,18.0537815 14.1747899,18.302521 13.7243697,18.4840336 L13.7243697,13.4857143 C14.0168067,13.5563025 14.3058824,13.6268908 14.5478992,13.7478992 C15.3579832,14.1478992 15.6235294,14.8033613 15.707563,15.2840336 C15.8521008,16.1042017 15.5563025,17.0218487 14.9445378,17.6773109 M9.64033613,9.18319328 C9.26386555,8.7697479 9.10588235,8.24201681 9.1697479,7.62016807 C9.26386555,6.75966387 9.77815126,5.88235294 10.4840336,5.39495798 C10.6084034,5.30756303 10.7462185,5.24705882 10.8806723,5.17983193 L10.8806723,9.90252101 C10.3865546,9.75798319 9.96638655,9.54285714 9.64033613,9.18319328 M18.5142857,14.7529412 C18.2554622,13.1294118 17.2235294,11.7344538 15.7478992,11.0084034 C15.0857143,10.6823529 14.4033613,10.5142857 13.7243697,10.3932773 L13.7243697,5.00168067 C14.4336134,5.2 15.0957983,5.54957983 15.610084,5.99327731 C16.1781513,6.4907563 17.0420168,6.43361345 17.5394958,5.86554622 C17.5630252,5.83865546 17.589916,5.80840336 17.610084,5.77815126 C18.107563,5.12605042 18.0168067,4.19831933 17.405042,3.65378151 C16.3495798,2.76302521 15.0789916,2.16470588 13.7210084,1.92268908 L13.7210084,1.5092437 C13.7210084,0.675630252 13.0857143,0 12.2991597,0 C11.512605,0 10.8739496,0.675630252 10.8739496,1.5092437 L10.8739496,2 C10.1747899,2.16806723 9.51260504,2.46386555 8.91764706,2.87058824 C7.5092437,3.84537815 6.5210084,5.53613445 6.33277311,7.28403361 C6.17142857,8.79663866 6.61512605,10.2184874 7.57983193,11.2773109 C8.5512605,12.3495798 9.71764706,12.7697479 10.8705882,13.0016807 L10.8705882,18.6184874 C9.92268908,18.389916 9.02857143,17.9731092 8.24537815,17.3915966 C7.63697479,16.9378151 6.77647059,17.0655462 6.32605042,17.6739496 C6.30252101,17.7042017 6.28235294,17.7344538 6.26218487,17.7647059 C5.81176471,18.4504202 5.9697479,19.3882353 6.61512605,19.8655462 C7.87226891,20.7966387 9.33109244,21.4184874 10.8739496,21.6806723 L10.8739496,22.0806723 C10.8739496,22.9142857 11.5092437,23.589916 12.2991597,23.589916 C13.0857143,23.589916 13.7210084,22.9142857 13.7210084,22.0806723 L13.7210084,21.6268908 C14.9647059,21.3680672 16.097479,20.7294118 16.9647059,19.7983193 C18.2352941,18.4470588 18.8067227,16.5815126 18.5142857,14.7529412" id="Dolar_Dinero_Moneda_3Masa"></path>
        </g>
    </g>
</svg>

<svg width="24" height="24" viewBox="0 0 24 24" xmlns="http://www.w3.org/2000/svg"><path d="M14.945 17.677c-.35.377-.77.626-1.22.807v-4.998c.292.07.58.14.823.262.81.4 1.076 1.055 1.16 1.536.144.82-.152 1.738-.763 2.393M9.64 9.183c-.376-.413-.534-.941-.47-1.563.094-.86.608-1.738 1.314-2.225.124-.087.262-.148.397-.215v4.723c-.494-.145-.915-.36-1.24-.72m8.873 5.57a5.062 5.062 0 00-2.766-3.745c-.662-.326-1.345-.494-2.024-.615V5.002a4.97 4.97 0 011.886.991c.568.498 1.432.44 1.93-.127.023-.027.05-.058.07-.088a1.571 1.571 0 00-.205-2.124 7.85 7.85 0 00-3.684-1.731v-.414C13.721.676 13.086 0 12.299 0c-.786 0-1.425.676-1.425 1.51V2c-.7.168-1.361.464-1.956.87-1.409.975-2.397 2.666-2.585 4.414-.162 1.513.282 2.934 1.247 3.993.971 1.073 2.138 1.493 3.29 1.725v5.616a7.26 7.26 0 01-2.625-1.226 1.37 1.37 0 00-1.919.282c-.023.03-.044.06-.064.09-.45.686-.292 1.624.353 2.102a9.958 9.958 0 004.259 1.815v.4c0 .833.635 1.509 1.425 1.509.787 0 1.422-.676 1.422-1.51v-.453a6.143 6.143 0 003.244-1.829 5.988 5.988 0 001.55-5.045" fill="#5CB615" fill-rule="nonzero"/></svg>
